X: 3
T: Eanach Mhic Coilin
R: reel
M: 4/4
L: 1/8
K: Edor
BE~E2 DEGA|BE~E2 D2GA|BE~E2 DEGA|1 BedB A2GA:|2 BedB ADFA||Beed BAGA|(3Bcd ef gfed|Beed BAGA|BedB A2GA|Beed BAGA|(3Bcd ef g2fg|e3f edBA|BedB ADFA||


Tune 78	Setting 12568

